!!!!SEGMENT: pl-kozmzk--mzk-m-346--046_walczynski-franciszek--cantantibus-organis-larghetto.krn
!!!cenid: 18xx:2841
!!!COM: Walczyński, Franciszek
!!!COM-rismID: pe30021989
!!!CDT: ~1852-1937
!!!CNT: Polish
!!!GTL: Cantantibus organis op. 10
!!!OTL: 46. Larghetto
!!!OMV: 046
!!!PDT: 1898
!!!AGN: Secular
!!!SMS-siglum: PL-KOZmzk
!!!SMS-shelfmark: mzk/m/346
!!!SMS-shelfwork: 001-046 G
!!!SMS-variant:
!!!SMS-altvar:
!!!NIFC-rismSourceID: 1001099615
!!!NIFC-rismChildID: 1001109611
!!!NIFC-islandoraID: pl-kozmzk:7453
!!!URL-pdf-islandora: https://repozytorium.nifc.pl/islandora/object/pl-kozmzk%3A7453/datastream/PDF/view
!!!URL-scan: https://polish.musicsources.pl/pl/lokalizacje/galeria/druki-muzyczne/7581 @EN{Scan on Polish Music Sources Website} @PL{Skany w portalu Dziedzictwo Muzyki Polskiej w otwartym dostępie}
!!!IIIF:
!!!ONB-nifc:
!!!OMD: Larghetto.
!!!AIN: 1 klav
!!!key:
**kern	**kern	**dynam
*part1	*part1	*part1
*staff2	*staff1	*
*ICklav	*ICklav	*
*Iklav	*Iklav	*
*I"46.	*I"46.	*
*clefF4	*clefG2	*
*k[b-e-a-]	*k[b-e-a-]	*
*E-:	*E-:	*
*M3/4	*M3/4	*
=1	=1	=1
*^	*^	*
!	!LO:TX:b:i:t=Ped.	!	!	!
(4B-/	[2.E-\	(4g/	[2.e-\	p
8c/L	.	8a-/L	.	.
8B-/	.	8g/	.	.
8An/	.	8f#X/	.	.
8B-/J	.	8g/J	.	.
=2	=2	=2	=2	=2
8.c/L	2.E-\]	8.ee-/L	2.e-\]	.
16A-X/Jk	.	16cc/Jk	.	.
4F#X/	.	4an/	.	.
4G/)	.	4b-/	.	.
=3	=3	=3	=3	=3
(4G/	(8D\L	8bn/L	8f\	.
.	8E-\	8cc/	4.g\	.
8Bn/L	8D\	8dd/	.	.
8c/J	8C\J	8ee-/	.	.
8An/L	4F\	8g/	[4e-\	.
8c/J	.	8an/J	.	.
=4	=4	=4	=4	=4
4An/	2BB-\	2cc/	2e-\]	>
4F/	.	.	.	.
4B-X/)	8B-X\L	4b-/)	4d\	.
.	8A-X\J)	.	.	]
=5	=5	=5	=5	=5
4B-/	4G\	(8ee-/L	4e-\	f
.	.	8b-/	.	.
2An/	2F#X\	8dd/	2d\	.
.	.	8an/	.	.
.	.	8b-/	.	.
.	.	8cc/J	.	.
=6	=6	=6	=6	=6
2B-/	2G\	2b-/	2d\	.
4d/	4B-\	4g/	4g\	.
=7	=7	=7	=7	=7
2.d/	2.Bn\	8gg/L	[2.g\	.
.	.	8dd/	.	.
.	.	8gg/	.	.
.	.	8ff/	.	.
.	.	8ee-/	.	.
.	.	8dd/J	.	.
=8	=8	=8	=8	=8
(2c/	(2c\	2ee-/	2.g\]	.
4e-/)	4C\)	4cc/)	.	.
=9	=9	=9	=9	=9
!LO:TX:b:i:t=Man.	!	!	!	!LO:DY:a
4ryy	4r	8r	8ryy	pp
.	.	(8cc/L	(8a-\L	.
4ryy	4r	8b-/	8g\	.
.	.	8a-/	8f\	.
!	!	!	!	!LO:DY:b=2
4B-/	(8B-\L	8g/	8e-\	pp
.	8A-\J	8f/J	8d\J	.
!!LO:LB:g=original
=10	=10	=10	=10	=10
2B-/	4G\	2b-/	2.e-\)	.
.	4G-X\	.	.	.
4c/	4C\)	4ee-/)	.	.
=11	=11	=11	=11	=11
!	!	!	!	!LO:DY:b=2
8r	8ryy	4r	4ryy	pp
(8c/L	(8A-\L	.	.	.
8B-/	8G\	4r	4ryy	.
8A-/	8F\	.	.	.
!	!	!	!	!LO:DY:a:rj
8G/	8E-\	(4b-/	8e-\L	pp
8F/J	8BB-\J	.	8d\J	.
=12	=12	=12	=12	=12
2G/)	2E-\)	2e-/)	2B-\	.
4r	4ryy	4r	4ryy	.
=13	=13	=13	=13	=13
!	!	!	!	!LO:DY:t=pf
2.rG	2.rC	(8e-/L	2.r	fp
.	.	8f/	.	.
.	.	8g-X/	.	.
.	.	8a-/	.	.
.	.	8b-/	.	.
.	.	8cc-X/J	.	.
=14	=14	=14	=14	=14
2.rG	2.rC	2b-/	2.rB	.
.	.	4dn/	.	.
=15	=15	=15	=15	=15
2.re	(8E-\L	2.e-/	2.r	.
.	8F\	.	.	.
.	8G-X\	.	.	.
.	8A-\	.	.	.
.	8B-\	.	.	.
.	8c-X\J	.	.	.
=16	=16	=16	=16	=16
2.r	2B-\	2.d/)	2.r	.
.	4A-\	.	.	.
=17	=17	=17	=17	=17
!	!	!	!	!LO:DY:a:rj
8r	8G-X\L	(8e-/L	8r	fp
8B-/	8BB-\	8f/J	8d\	.
(4B-/	8E-\	4g-X/	2e-\	.
.	8D-X\J	.	.	.
4A-/)	4C-X\)	4a-/)	.	.
=18	=18	=18	=18	=18
!	!LO:TX:b:i:t=Ped.	!	!	!LO:DY:a
(4e-/	[2.BB-\	[2.b-/	(2.f\	f
8dn/L	.	.	.	.
8c/J	.	.	.	.
4d/	.	.	.	.
=19	=19	=19	=19	=19
4f/	2.BB-\_	2.b-/_	4a-\	.
4e-/	.	.	4g-X\	.
4c/	.	.	4e-\	.
!!LO:LB:g=original
=20	=20	=20	=20	=20
2dn/)	2BB-\]	2b-Z/]	2f\)	.
!	!	!	!	!LO:DY:a
4rc	4r	4b-/	4r	p
=21	=21	=21	=21	=21
(4B-/	[2.E-\	(4g/	[2.e-\	.
8c/L	.	8a-/L	.	.
8B-/	.	8g/	.	.
8An/	.	8f#X/	.	.
8B-/J	.	8g/J	.	.
=22	=22	=22	=22	=22
8.c/L	2.E-\]	8.ee-/L	2.e-\]	.
16A-X/Jk	.	16cc/Jk	.	.
4F#X/	.	4an/	.	.
4G/)	.	4b-/)	.	.
*v	*v	*	*	*
*	*v	*v	*
=23	=23	=23
(<4BB-/	[2.dd [2.a- [2.f/	f
8C-X/L	.	.
8BB-/	.	.
8AAn/	.	.
8BB-/J	.	.
=24	=24	=24
*	*^	*
8B-\L	4dd/]	4a-] 4f\]	.
8Bn\J	.	.	.
2c\)	(4ff/	2g 2e-\	.
.	4ee-/)	.	.
=25	=25	=25	=25
*^	*	*	*
8r	2.r	8r	2.rc	.
!	!	!	!	!LO:DY:rj
(8F/L	.	(8f/L	.	p
8G/	.	8g/	.	.
8A-/	.	8a-/	.	.
8c/	.	8cc/	.	.
8B-/J	.	8b-/J	.	.
=26	=26	=26	=26	=26
2g/	2.r	2gg/	2.r	.
4f/)	.	4ff/)	.	.
=27	=27	=27	=27	=27
8r	2.rAA	8r	2.rc	pp
(8F/L	.	(8f/L	.	.
8G/	.	8g/	.	.
8A-/	.	8a-/	.	.
8C/	.	8c/	.	.
8D/J	.	8d/J	.	.
=28	=28	=28	=28	=28
2G/	2.rAA	2g/	2.r	.
4F/)	.	4f/)	.	.
=29	=29	=29	=29	=29
!	!LO:TX:b:i:t=Ped.	!	!	!
(4BB-/	[2.EE-\	[2.e-/	[2.G\	pp
8C/L	.	.	.	.
8BB-/	.	.	.	.
8AAn/	.	.	.	.
8BB-/J	.	.	.	.
=30	=30	=30	=30	=30
2.E-/)	2.EE-;\]	2.e-;/]	2.G\]	.
*v	*v	*	*	*
*	*v	*v	*
==	==	==
*-	*-	*-
!!!system-decoration: {(s1,s2)}
!!!RDF**kern: < = below
!!!RDF**kern: Z = caesura
!!!ENC: Andrzej Kubiczek
!!!END: 2021-08-09
!!!ENC: Andrzej Gręziak
!!!END: 2021-07-28
!!!YEC: Copyright 2022 Narodowy Instytut Fryderyka Chopina (https://polishscores.org)
!!!YEM: License CC-BY-4.0 (https://creativecommons.org/licenses/by/4.0)
